X:396
T:Lady Baird
R:Strathspey
C:Andrew Gow
B:The Athole Collection
M:C
L:1/8
K:A
a|e<cc>B A>BA>E|F>AE>A F>AE>a|e<cc>B A>BA>B|c<ee>^d e2e:|
|:=g|f<dd>B c>de>c|d<BB>G A>Bc>E|F>AE>A F>AE>d|(3cAc (3BGB A2A:|

